X: 55
T:Ma Na'avu
L:1/8
O:Israel
C:J.Spivak
B:V. Pasternak: Great Songs of Israel
Z:John Chambers <jc:trillian.mit.edu>
S:from transcriptions by Terry Traub and Seymour Shlien
M:C|
Q:1/2=60
K:Ddor
P: in Dm:
|: "Dm"d2ag a3f | "Gm"g2a2 "Dm"f2ed | "C"(ef)g2 "Bb"f2(ed) |1 "Am"(e2"Dm"f4) "A7"e2 :|2 "Am"(c2"Dm"d4) ||
w: Ma na-'a-vu al he har-im ra-g'-le* ha-me-va-*ser* | \-ser*
|: cB | "Am"(c2d2) "G"(B3G) | "Am"(cB)c2 "Dm"d2cB | "Am"(c2d2) "G"B3G | "Am"(cB A4) |]
w: Ma she-mi-*a* ye-*shu-a ma she-mi-*a sha-lom**
%%sep 2 2 200
P:in Am:
K:Ador
|: "Am"A2ed e3c | "Dm"d2e2 "Am"c2BA | "G"(Bc)d2 "F"c2(BA) |1 "Em"(B2"Am"c4) "E7"B2 :|2 "Em"(G2"Am"A4) ||
|: GF | "Em"(G2A2) "D"(F3D) | "Em"(GF)G2 "Am"A2GF | "Em"(G2A2) "D"F3D | "Em"(GF E4) |]
%
W:    
W:    
